!!!OTL: Zwei Wasser. (Schwimmersage)
!!!ARE: Europa, Mitteleuropa, Deutschland
!!!SCT: A0024B
!!!YEM: Copyright 1995, estate of Helmut Schaffrath.
**kern
*ICvox
*Ivox
*M3/1
*k[b-e-]
*g:
{1g
=1
1.g
2a
1b-
=2
0a
1g
=3
1.a
2b-
1cc
=4
0dd}
{1dd
=5
1.cc
2b-
1a
=6
1b-
0g
=7
0.fn
=8
0r}
{1fn
=9
1.g
2a
1b-
=10
1.cc
2b-
1a
=11
1.g
2a
1b-
=12
0a}
{1g
=13
1fn
0d
=14
1.g
2fn
2fn
2e
=15
0g}
==
!!!AGN: Romanze, Ballade, Lied
!! Mel. bei Schmeltzel, Quodlibet X. 1544
!!!ONB: ESAC (Essen Associative Code) Database: ALTDEU
!!!AMT: simple triple
!!!AIN: vox
!!!EED: Helmut Schaffrath
!!!EEV: 1.0
*-
